!!!OTL: Landsknecht - Marsch.
!!!ARE: Europa, Mitteleuropa, Deutschland
!!!SCT: A0419
!!!TXL: @@DE
!!!YEM: Copyright 1995, estate of Helmut Schaffrath.
**kern	**text
*M4/2	*
*met(c|)	*
*clefC4	*
*k[b-]	*
*g:dor	*
=1	=1
!LO:TX:a:t=dor. tr.	!
{2G	Vn-
2G	-ſer
2B-	lie-
2B-	-be
=2	=2
1G	fra-
2F}	-we,
{2F	vom
=3	=3
2B-	kal-
2B-	-ten
1c	brun-
=4	=4
1d	-nen,
2r}	.
{2d	be-
=5	=5
2d	-ſcher
2d	vns
2d	ar-
2d	-men
=6	=6
1e-	lands-
2d}	-knecht
{2d	ein
=7	=7
2d	war-
2d	-me
*lig	*
2d	ſon-
2c	.
*Xlig	*
=8	=8
1B-	-nen,
1r}	.
=9	=9
{2d	daß
2d	wir
2d	nit
2c	er-
=10	=10
1B-	-frie-
2G}	-ren,
{2G	wol
=11	=11
2B-	in
2B-	des
2c	wir-
2c	-tes
=12	=12
1d	hauß,
2r}	.
{2d	trag
=13	=13
2d	wir
2d	ein
2d	vol-
2d	-len
=14	=14
1e-	ſe-
2d}	-ckel
{4d	vnd
4d	ein
=15	=15
2c	lee-
2c	-ren
2.B-	wie-
4A	-der
=16	=16
1G	auß,
2.d	und
4d	ein
=17	=17
2c	lee-
2c	-ren
2A	wie-
2A	-der
=18	=18
0G/ll}	auß.
==	==
!!!GTL: Landsknecht- und Reiterlieder
!!!AGN: Romanze, Ballade, Lied, Kriegslied
!! Forster V 1556 No. 37
!!!ONB: ESAC (Essen Associative Code) Database: ALTDEU
!!!AMT: simple quadruple
!!!AIN: vox
!!!EED: Helmut Schaffrath
!!!EEV: 1.0
!!!RDF**kern: l = terminal long
!!!AMD: Dorian
!!!URL-scan: https://rosdok.uni-rostock.de/mcrviewer/recordIdentifier/rosdok_ppn738218359/iview2/phys_0598.iview2?x=-495.6391625615763&y=-1149.6044335216284&scale=0.4629418472063854&rotation=0&layout=singlePageLayout&logicalDiv=log_0015
!!!ENC: Anna Maria Matuszewska
!!!EEV: 2024/15/03
*-	*-
